src/assets/Images/about/why_1.svg

<svg width="78" height="70" viewBox="0 0 78 70" fill="none" xmlns="http://www.w3.org/2000/svg">
<path d="M78 8.51682V55.1827C78 58.9898 74.9254 62.4828 71.1503 62.9538L69.9438 63.1108C63.5611 63.9743 54.5708 66.6431 47.3319 69.7045C44.8022 70.7642 42 68.841 42 66.0544V11.4604C42 10.0082 42.8173 8.67381 44.1016 7.96735C51.2238 4.08179 62.0043 0.627968 69.3211 0H69.5546C74.2249 0 78 3.80706 78 8.51682Z" fill="#C4AB73"/>
<path d="M33.9373 7.96735C26.8151 4.08179 16.0346 0.627968 8.71784 0H8.44541C3.77513 0 0 3.80706 0 8.51682V55.1827C0 58.9898 3.07459 62.4828 6.84973 62.9538L8.05622 63.1108C14.4389 63.9743 23.4292 66.6431 30.6681 69.7045C33.1978 70.7642 36 68.841 36 66.0544V11.4604C36 9.969 35.2216 8.67381 33.9373 7.96735ZM11.7146 19.8595H20.4714C22.067 19.8595 23.3903 21.1939 23.3903 22.8031C23.3903 24.4515 22.067 25.7467 20.4714 25.7467H11.7146C10.1189 25.7467 8.79568 24.4515 8.79568 22.8031C8.79568 21.1939 10.1189 19.8595 11.7146 19.8595ZM23.3903 37.5211H11.7146C10.1189 37.5211 8.79568 36.2259 8.79568 34.5775C8.79568 32.9683 10.1189 31.6339 11.7146 31.6339H23.3903C24.9859 31.6339 26.3092 32.9683 26.3092 34.5775C26.3092 36.2259 24.9859 37.5211 23.3903 37.5211Z" fill="#C4AB73"/>
</svg>

<svg xmlns="http://www.w3.org/2000/svg" width="78" height="70" fill="none"><path fill="#C4AB73" d="M78 8.517v46.666c0 3.807-3.075 7.3-6.85 7.77l-1.206.158c-6.383.863-15.373 3.532-22.612 6.593-2.53 1.06-5.332-.863-5.332-3.65V11.46c0-1.452.817-2.786 2.102-3.493C51.224 4.082 62.004.628 69.322 0h.233C74.225 0 78 3.807 78 8.517ZM33.937 7.967C26.815 4.082 16.035.628 8.717 0h-.272C3.775 0 0 3.807 0 8.517v46.666c0 3.807 3.075 7.3 6.85 7.77l1.206.158c6.383.863 15.373 3.532 22.612 6.593 2.53 1.06 5.332-.863 5.332-3.65V11.46a3.927 3.927 0 0 0-2.063-3.493ZM11.715 19.86h8.756c1.596 0 2.92 1.334 2.92 2.943a2.927 2.927 0 0 1-2.92 2.944h-8.756a2.927 2.927 0 0 1-2.92-2.944c0-1.61 1.324-2.944 2.92-2.944ZM23.39 37.52H11.715a2.927 2.927 0 0 1-2.92-2.944c0-1.609 1.324-2.943 2.92-2.943H23.39c1.596 0 2.92 1.334 2.92 2.944a2.927 2.927 0 0 1-2.92 2.943Z"/></svg>
